X:653
T: WIR WOLLEN VERGNUEGT UND EINSAM LEBEN
N: E0602A
O: Europa, Mitteleuropa, Deutschland, Westfalen
R: Liebes - Lied
M: 3/8
L: 1/16
K: G
G2 | G2D2B2 | B2G2
d2 | d2c2B2 | B2A2
AB | c2B2G2 | B2A2
AB | c2B2G2 | B2A2
GB | d4e2 | d3c
B2 | e2d2F2 | G4

@@@ Tune index: 4303
